X: 34798
T: Road To Skye, The
R: jig
M: 6/8
K: Gmajor
|:f|gag dBd|gbd' e'2d'|g'd'b bab|c'bc' e2f|
gag dBd|gbd' e'2d'|g'd'b bab|1 c'ef g2:|2 c'ef g2a||
|:gbd' gbd'|gbd' c'ba|gbd' e'f'g'|f'd'^c' d'e'f'|
g'e'g' f'd'f'|e'c'e' d'2b|c'bc' ad'c'|1 bgf g2a:|2 bgf g2||

